X: 1
T: Macbeth
C: Ed Pearlman 2012
R: strathspey
Z: 2012 John Chambers <jc:trillian.mit.edu>
M: C
L: 1/8
K: Am
|:\
"Am"E<A, A,>B, "G"G,>A, B,>G, | "Am"A,<E E>D "Em"G>E D>^F |\
"Am"E<A, A,>B, "G"G,>A, B,>G, |1 "Em"A,<G (3EDB, "Am"A,2 A,<G :|2 "Em"A,<G (3EDB, "Am"A,2A,2 |]
"Am"E<A A>D "G"G>D B>D | "Am"E<A A>B "F"(3cBA "Em"B>G |\
"Am"E<A A>D "G"G>D B>G | "Em"c>A "G"(3BAG "Am"A2A2 |]
"Am"E<A A>D "G"G>D B>D | "Am"E<A A>B "F"(3cBA "Em"B>G |\
"G"(3AG^F G>E "Em"D<G B,>G, | "F"A,<G "G"(3EDB, | "Am"A,2A,2 |]
